symbols/web/contacts/materialsymbolsrounded/contacts_wght100grad200fill1_20px.svg

<svg xmlns="http://www.w3.org/2000/svg" height="20" width="20"><path d="M4.146 18.854q-.229 0-.417-.187-.187-.188-.187-.417 0-.229.187-.417.188-.187.417-.187h11.729q.229 0 .417.187.187.188.187.417 0 .229-.187.417-.188.187-.417.187Zm0-16.5q-.229 0-.417-.187-.187-.188-.187-.417 0-.229.187-.417.188-.187.417-.187h11.729q.229 0 .417.187.187.188.187.417 0 .229-.187.417-.188.187-.417.187ZM10 12.646q.938 0 1.604-.667.667-.667.667-1.604t-.667-1.604q-.666-.667-1.604-.667-.938 0-1.604.667-.667.667-.667 1.604t.667 1.604q.666.667 1.604.667Zm-6.042 3.437q-.812 0-1.343-.531-.532-.531-.532-1.344V5.812q0-.833.532-1.364.531-.531 1.343-.531h12.063q.833 0 1.364.531.532.531.532 1.364v8.396q0 .813-.532 1.344-.531.531-1.364.531Zm1.459-1.208h9.208q-.958-.979-2.125-1.5t-2.5-.521q-1.333 0-2.479.521-1.146.521-2.104 1.5Z"/></svg>

<svg xmlns="http://www.w3.org/2000/svg" height="20" width="20"><path d="M4.146 18.854Q3.917 18.854 3.729 18.667Q3.542 18.479 3.542 18.25Q3.542 18.021 3.729 17.833Q3.917 17.646 4.146 17.646H15.875Q16.104 17.646 16.292 17.833Q16.479 18.021 16.479 18.25Q16.479 18.479 16.292 18.667Q16.104 18.854 15.875 18.854ZM4.146 2.354Q3.917 2.354 3.729 2.167Q3.542 1.979 3.542 1.75Q3.542 1.521 3.729 1.333Q3.917 1.146 4.146 1.146H15.875Q16.104 1.146 16.292 1.333Q16.479 1.521 16.479 1.75Q16.479 1.979 16.292 2.167Q16.104 2.354 15.875 2.354ZM10 12.646Q10.938 12.646 11.604 11.979Q12.271 11.312 12.271 10.375Q12.271 9.438 11.604 8.771Q10.938 8.104 10 8.104Q9.062 8.104 8.396 8.771Q7.729 9.438 7.729 10.375Q7.729 11.312 8.396 11.979Q9.062 12.646 10 12.646ZM3.958 16.083Q3.146 16.083 2.615 15.552Q2.083 15.021 2.083 14.208V5.812Q2.083 4.979 2.615 4.448Q3.146 3.917 3.958 3.917H16.021Q16.854 3.917 17.385 4.448Q17.917 4.979 17.917 5.812V14.208Q17.917 15.021 17.385 15.552Q16.854 16.083 16.021 16.083ZM5.417 14.875H14.625Q13.667 13.896 12.5 13.375Q11.333 12.854 10 12.854Q8.667 12.854 7.521 13.375Q6.375 13.896 5.417 14.875Z"/></svg>
